assets/symbols/mulberry/shiny.svg

<svg height="850.394" viewBox="0 0 850.394 850.394" width="850.394" xmlns="http://www.w3.org/2000/svg"><path d="m424.686 566.294.003 190.148m0-675.884v193.251m-108.429 144.95h-229.355m675.894 0h-223.867m-204.759 91.707-147.263 147.251m477.933-477.925-151.02 151.015m.786 176.684 151.259 151.252m-477.932-477.925 147.107 147.107" fill="#fff" stroke="#231f20" stroke-width="21"/><path d="m0 0h850.394v850.394h-850.394z" fill="none"/></svg>

<svg xmlns="http://www.w3.org/2000/svg" width="850.394" height="850.394" viewBox="0 0 850.394 850.394" overflow="visible"><path fill="#fff" stroke="#231f20" stroke-width="21" d="M424.686 566.294l.003 190.148M424.689 80.558v193.251M316.26 418.759H86.905M762.799 418.759H538.932M334.173 510.466L186.91 657.717M664.843 179.792l-151.02 151.015M514.609 507.491l151.259 151.252M187.936 180.818l147.107 147.107"/><path fill="none" d="M0 0h850.394v850.394H0z"/></svg>
